X:133 
T:Malloy's Favorite (reel) 
B:CRE3.148 (Rogha Ui Mhaolmhuaidh)
F:file ID: cre.3/133mall_f
N:CRE has a Bb in the first measure of the B part that I'm considering a
typo, since it doesn't fit the context of the tune and doesn't reappear
anywhere.
R:reel
L:1/8
Q:180
M:C
K:G
dc|:BGG2 DGG2|AFF2 ABcA|BGG2 DGG2|AFcF AGGA|
BGG2 DGG2|AFF2 ABcA|Gggf gbag|fdcA BGGA:|
"9"B2BA B2BA|Bdgd ABcA|Ggfa g3a|bgg2 defd|
g2gf gabg|defd ABcA|Ggfa gbag|fdcA BGGA:|
"17"(3Bcd gd BGGB|(3ABc ec AFFA|(3Bcd gd BGGB|AFcF AGG2|
(3Bcd gd BGGB|(3ABc ec AFFA|Ggfa gbag|fdcA BGGA:|G8||

%%%

